(This file is a G-Code generated wing shape for use in the Aerolab CNCHotwire)
(Wing shape is based off a NACA 0016 root airfoil and NACA 0016 tip airfoil)
(Wing Characteristics::)
(  right wing, root chord 1.0 in, tip chord 1.0 in,)
(0.0 degrees washout, 1.0 degrees sweep,span 7.0 in)
G17
G20
G1 X0.5 Y3.0 U0.5 V3.0 F5
G4 P0.3
G1 X12 Y3.0 U12 V3.0
G4 P0.3
G1 X12 Y1.785 U12 V1.785 F4
G4 P0.3
G1 X1.963 Y1.785 U2.513 V1.785 F1
G4 P0.3
G1 X1.843 Y1.785 U2.393 V1.785 F5
G1 X1.792 Y1.795 U2.342 V1.795 F5
G1 X1.79 Y1.795 U2.34 V1.795
G1 X1.786 Y1.796 U2.336 V1.796
G1 X1.78 Y1.797 U2.33 V1.797
G1 X1.772 Y1.799 U2.322 V1.799
G1 X1.762 Y1.801 U2.312 V1.801
G1 X1.75 Y1.803 U2.3 V1.803
G1 X1.737 Y1.805 U2.286 V1.805
G1 X1.721 Y1.808 U2.271 V1.808
G1 X1.704 Y1.811 U2.254 V1.811
G1 X1.685 Y1.814 U2.235 V1.814
G1 X1.665 Y1.818 U2.214 V1.818
G1 X1.643 Y1.821 U2.193 V1.821
G1 X1.619 Y1.825 U2.169 V1.825
G1 X1.595 Y1.829 U2.145 V1.829
G1 X1.569 Y1.833 U2.119 V1.833
G1 X1.542 Y1.837 U2.092 V1.837
G1 X1.514 Y1.84 U2.064 V1.84
G1 X1.485 Y1.844 U2.035 V1.844
G1 X1.455 Y1.848 U2.005 V1.848
G1 X1.425 Y1.852 U1.975 V1.852
G1 X1.394 Y1.855 U1.944 V1.855
G1 X1.363 Y1.859 U1.913 V1.859
G1 X1.331 Y1.862 U1.881 V1.862
G1 X1.299 Y1.865 U1.849 V1.865
G1 X1.268 Y1.867 U1.817 V1.867
G1 X1.236 Y1.87 U1.786 V1.87
G1 X1.204 Y1.872 U1.754 V1.872
G1 X1.173 Y1.873 U1.723 V1.873
G1 X1.142 Y1.874 U1.692 V1.874
G1 X1.112 Y1.875 U1.662 V1.875
G1 X1.083 Y1.875 U1.633 V1.875
G1 X1.054 Y1.875 U1.604 V1.875
G1 X1.027 Y1.874 U1.576 V1.874
G1 X1.0 Y1.872 U1.55 V1.872
G1 X0.974 Y1.87 U1.524 V1.87
G1 X0.95 Y1.868 U1.5 V1.868
G1 X0.927 Y1.864 U1.477 V1.864
G1 X0.906 Y1.861 U1.456 V1.861
G1 X0.886 Y1.857 U1.436 V1.857
G1 X0.867 Y1.852 U1.417 V1.852
G1 X0.851 Y1.847 U1.4 V1.847
G1 X0.835 Y1.841 U1.385 V1.841
G1 X0.822 Y1.835 U1.372 V1.835
G1 X0.81 Y1.828 U1.36 V1.828
G1 X0.8 Y1.821 U1.35 V1.821
G1 X0.792 Y1.813 U1.342 V1.813
G1 X0.786 Y1.805 U1.336 V1.805
G1 X0.782 Y1.795 U1.332 V1.795
G1 X0.781 Y1.799 U1.331 V1.799
G1 X0.781 Y1.791 U1.331 V1.791
G1 X0.786 Y1.766 U1.336 V1.766
G1 X0.792 Y1.757 U1.342 V1.757
G1 X0.8 Y1.749 U1.35 V1.749
G1 X0.81 Y1.742 U1.36 V1.742
G1 X0.822 Y1.735 U1.372 V1.735
G1 X0.835 Y1.729 U1.385 V1.729
G1 X0.851 Y1.723 U1.4 V1.723
G1 X0.867 Y1.718 U1.417 V1.718
G1 X0.886 Y1.714 U1.436 V1.714
G1 X0.906 Y1.709 U1.456 V1.709
G1 X0.927 Y1.706 U1.477 V1.706
G1 X0.95 Y1.703 U1.5 V1.703
G1 X0.974 Y1.7 U1.524 V1.7
G1 X1.0 Y1.698 U1.55 V1.698
G1 X1.027 Y1.696 U1.576 V1.696
G1 X1.054 Y1.696 U1.604 V1.696
G1 X1.083 Y1.695 U1.633 V1.695
G1 X1.112 Y1.695 U1.662 V1.695
G1 X1.142 Y1.696 U1.692 V1.696
G1 X1.173 Y1.697 U1.723 V1.697
G1 X1.204 Y1.699 U1.754 V1.699
G1 X1.236 Y1.7 U1.786 V1.7
G1 X1.268 Y1.703 U1.817 V1.703
G1 X1.299 Y1.705 U1.849 V1.705
G1 X1.331 Y1.708 U1.881 V1.708
G1 X1.363 Y1.711 U1.913 V1.711
G1 X1.394 Y1.715 U1.944 V1.715
G1 X1.425 Y1.718 U1.975 V1.718
G1 X1.455 Y1.722 U2.005 V1.722
G1 X1.485 Y1.726 U2.035 V1.726
G1 X1.514 Y1.73 U2.064 V1.73
G1 X1.542 Y1.734 U2.092 V1.734
G1 X1.569 Y1.737 U2.119 V1.737
G1 X1.595 Y1.741 U2.145 V1.741
G1 X1.619 Y1.745 U2.169 V1.745
G1 X1.643 Y1.749 U2.193 V1.749
G1 X1.665 Y1.752 U2.214 V1.752
G1 X1.685 Y1.756 U2.235 V1.756
G1 X1.704 Y1.759 U2.254 V1.759
G1 X1.721 Y1.762 U2.271 V1.762
G1 X1.737 Y1.765 U2.286 V1.765
G1 X1.75 Y1.767 U2.3 V1.767
G1 X1.762 Y1.769 U2.312 V1.769
G1 X1.772 Y1.771 U2.322 V1.771
G1 X1.78 Y1.773 U2.33 V1.773
G1 X1.786 Y1.774 U2.336 V1.774
G1 X1.79 Y1.775 U2.34 V1.775
G1 X1.792 Y1.775 U2.342 V1.775
G1 X1.843 Y1.785 U2.393 V1.785
G1 X1.963 Y1.785 U2.513 V1.785 F5
G1 X12 Y1.785 U12 V1.785 F1
G1 X12 Y3.0 U12 V3.0 F5
G1 X0.5 Y3.0 U0.5 V3.0
G1 X0 Y0 U0 V0
M2